dist/images/icons/icon-facebook-custom.svg

<?xml version="1.0" encoding="UTF-8" standalone="no"?>
<svg width="24px" height="24px" viewBox="0 0 24 24" version="1.1" xmlns="http://www.w3.org/2000/svg" xmlns:xlink="http://www.w3.org/1999/xlink">
    <!-- Generator: Sketch 41.1 (35376) - http://www.bohemiancoding.com/sketch -->
    <title>Combined Shape</title>
    <desc>Created with Sketch.</desc>
    <defs></defs>
    <g id="Page-1" stroke="none" stroke-width="1" fill="none" fill-rule="evenodd">
        <g transform="translate(-92.000000, -2653.000000)" fill="#9A9A9A">
            <g id="Footer" transform="translate(0.000000, 2324.000000)">
                <g id="contact-info" transform="translate(23.000000, 40.000000)">
                    <g id="Social-media-Icons" transform="translate(69.000000, 289.000000)">
                        <path d="M12,24 C18.627417,24 24,18.627417 24,12 C24,5.372583 18.627417,0 12,0 C5.372583,0 0,5.372583 0,12 C0,18.627417 5.372583,24 12,24 Z M14.95,9.75 L12.95,9.75 L12.95,8.45 C12.95,7.95 13.3,7.85 13.5,7.85 L14.9,7.85 L14.9,5.65 L12.95,5.65 C10.75,5.65 10.3,7.3 10.3,8.3 L10.3,9.75 L9.05,9.75 L9.05,12 L10.3,12 L10.3,18.35 L12.95,18.35 L12.95,12 L14.75,12 L14.95,9.75 Z" id="Combined-Shape"></path>
                    </g>
                </g>
            </g>
        </g>
    </g>
</svg>

<svg width="24" height="24" viewBox="0 0 24 24" xmlns="http://www.w3.org/2000/svg"><title>Combined Shape</title><g transform="translate(-92 -2653)" fill="#9A9A9A" id="Page-1" fill-rule="evenodd"><g id="Footer" transform="translate(0 2324)"><g id="contact-info" transform="translate(23 40)"><g id="Social-media-Icons" transform="translate(69 289)"><path d="M12 24c6.627 0 12-5.373 12-12S18.627 0 12 0 0 5.373 0 12s5.373 12 12 12zm2.95-14.25h-2v-1.3c0-.5.35-.6.55-.6h1.4v-2.2h-1.95c-2.2 0-2.65 1.65-2.65 2.65v1.45H9.05V12h1.25v6.35h2.65V12h1.8l.2-2.25z" id="Combined-Shape"/></g></g></g></g></svg>
